icons/graph-box-mean-lines-16.svg

<?xml version="1.0" encoding="UTF-8"?><svg id="icons" xmlns="http://www.w3.org/2000/svg" viewBox="0 0 16 16"><defs><style>.cls-1{fill:none;}.cls-1,.cls-2{stroke-width:0px;}</style></defs><rect class="cls-1" width="16" height="16"/><path class="cls-2" d="m2,15h14v1H1V1h1v14ZM15,2v2h1v4h-1v3h1v1h-3v-1h1v-2.53967l-3,2.10022v1.43945h-1v1h1v1h-3v-1h1v-1h-1v-1.19092l-3-1.5v1.69092h1v1h-3v-1h1v-2h-1v-4h1v-2h-1v-1h3v1h-1v2h1v1h3v-2h-1v-1h3v1h-1v1.70026l3-1.46161v-.23865h.48981l.51019-.2486v-1.7514h-1v-1h3v1h-1Zm-6,6v2.19092l.45703.22852.54297-.38007v-2.03937h-1Zm-5,0h1v-2h-1v2Zm4,1.69092v-2.69092h-2v1.69092l2,1Zm3-2.69092v2.33948l2-1.39984v-2.5885l-3,1.46143v.18744h1Zm4-2h-1v2h1v-2Z"/></svg>

<svg xmlns="http://www.w3.org/2000/svg" viewBox="0 0 16 16"><path stroke-width="0" fill="none" d="M0 0h16v16H0z"/><path d="M2 15h14v1H1V1h1v14zM15 2v2h1v4h-1v3h1v1h-3v-1h1V8.46l-3 2.1V12h-1v1h1v1H8v-1h1v-1H8v-1.19l-3-1.5V11h1v1H3v-1h1V9H3V5h1V3H3V2h3v1H5v2h1v1h3V4H8V3h3v1h-1v1.7l3-1.461V4h.49l.51-.249V2h-1V1h3v1h-1zM9 8v2.19l.457.23.543-.38V8H9zM4 8h1V6H4v2zm4 1.69V7H6v1.69l2 1zM11 7v2.34l2-1.4V5.35l-3 1.462V7h1zm4-2h-1v2h1V5z" stroke-width="0"/></svg>
